X:1
T:The Banks of the Nile
M:3/4
L:1/4
K:C
 G| A2 A| G2A/2-c/2| c2 c| C2C/2-D/2| E/2- G3/2 E| D2C/2-D/2| D3-|\
 D z C| D2 E| G2 A| d3| c zd/2-e/2| d2 c| A- GA/2-c/2| c3| z2 C| D2 E|\
 G3| e2 e| d- c d/2e/2| d2 c| A- GA/2-c/2| c3| z2 c| d2 c| A- GA/2-c/2|\
 c2 c| C2C/2-D/2| E/2- G3/2- E| D2C/2-D/2| D3-| D2||
